**harmony	**harte	**kern	**silbe	**kern	**silbe	**rhyme	**phrase
*M4/4	*M4/4	*ICvox	*	*ICvox	*	*	*
*	*	*VRlead	*	*VRharmonize	*	*	*
*	*	*Hstimme	*	*Nstimme	*	*	*
*C:	*C:	*C:	*	*C:	*	*	*
*	*	*M4/4	*	*M4/4	*	*	*
*	*	*clefF4	*	*clefG2	*	*	*
1r;	1r	r;	.	r;	.	.	.
=1	=1	=1	=1	=1	=1	=1	=1
*>Letter>A	*>Letter>A	*>Letter>A	*>Letter>A	*>Letter>A	*>Letter>A	*>Letter>A	*>Letter>A
*>Label>Intro	*>Label>Intro	*>Label>Intro	*>Label>Intro	*>Label>Intro	*>Label>Intro	*>Label>Intro	*>Label>Intro
1FMM	F:maj7	1r	.	1r	.	.	newline
=2	=2	=2	=2	=2	=2	=2	=2
1FMM	F:maj7	1r	.	1r	.	.	.
=3	=3	=3	=3	=3	=3	=3	=3
1CMM	C:maj7	1r	.	1r	.	.	.
=4	=4	=4	=4	=4	=4	=4	=4
1Amm	A:min7	2r	.	1r	.	.	.
.	.	4r	.	.	.	.	.
.	.	8dq	_	.	.	.	.
.	.	8e	I	.	.	.	.
.	.	8f	was	.	.	.	.
=5	=5	=5	=5	=5	=5	=5	=5
*>Letter>B	*>Letter>B	*>Letter>B	*>Letter>B	*>Letter>B	*>Letter>B	*>Letter>B	*>Letter>B
*>Label>Verse	*>Label>Verse	*>Label>Verse	*>Label>Verse	*>Label>Verse	*>Label>Verse	*>Label>Verse	*>Label>Verse
1Dmm	D:min7	8e	sit-	1r	.	.	newline
.	.	16c	-tin'	.	.	.	.
.	.	[16c	all	.	.	.	.
.	.	16c]	_	.	.	.	.
.	.	16A	a-	.	.	.	.
.	.	8c	-lone	.	.	A	.
.	.	4r	.	.	.	.	.
.	.	8e	wat-	.	.	.	.
.	.	8f	-chin'	.	.	.	.
=6	=6	=6	=6	=6	=6	=6	=6
1GMm	G:11	8e	peo-	1r	.	.	.
.	.	8c	-ple	.	.	.	.
.	.	16c	get	.	.	.	.
.	.	16A	it	.	.	.	.
.	.	8cq	_	.	.	.	.
.	.	[8d	on	.	.	A	.
.	.	8d]	_	.	.	.	.
.	.	8r	.	.	.	.	.
.	.	16A	with	.	.	.	.
.	.	8.A	each	.	.	.	.
=7	=7	=7	=7	=7	=7	=7	=7
.	.	8Gq	_	.	.	.	.
1CMM	C:maj7	8.A	o-	1r	.	(B	.
.	.	[16G	-ther	.	.	b)	.
.	.	8G]	_	.	.	.	.
.	.	8r	.	.	.	.	.
.	.	2r	.	.	.	.	.
=8	=8	=8	=8	=8	=8	=8	=8
1Amm	A:min7	2r	.	1r	.	.	.
.	.	4r	.	.	.	.	.
.	.	8dq	_	.	.	.	.
.	.	8e	They	.	.	.	.
.	.	8f	were	.	.	.	.
=9	=9	=9	=9	=9	=9	=9	=9
1Dmm	D:min7	8e	dan-	1r	.	.	newline
.	.	16c	-cin'	.	.	.	.
.	.	[16c	'cross	.	.	.	.
.	.	16c]	_	.	.	.	.
.	.	16A	the	.	.	.	.
.	.	8c	floor	.	.	C	.
.	.	4r	.	.	.	.	.
.	.	8e	tur-	.	.	.	.
.	.	8f	-nin',	.	.	.	.
=10	=10	=10	=10	=10	=10	=10	=10
.	.	8dq	_	.	.	.	.
1GMm	G:11	8e	mo-	1r	.	.	.
.	.	8c	-vin'	.	.	.	.
.	.	16c	back	.	.	.	.
.	.	8A	and	.	.	.	.
.	.	16cQ	_	.	.	.	.
.	.	[16d	forth	.	.	C	.
.	.	8d]	_	.	.	.	.
.	.	8r	.	.	.	.	.
.	.	8A	they	.	.	.	.
.	.	8A	were	.	.	.	.
=11	=11	=11	=11	=11	=11	=11	=11
.	.	8Gq	_	.	.	.	.
1CMM	C:maj7	8.A	lo-	1r	.	(B	.
.	.	[16G	-vers	.	.	b)	.
.	.	8G]	_	.	.	.	.
.	.	8r	.	.	.	.	.
.	.	2r	.	.	.	.	.
=12	=12	=12	=12	=12	=12	=12	=12
*	*	*	*	*clefF4	*	*	*
2Gmm	G:min7	2r	.	2r	.	.	.
2CMm	C:7	4c	One	4E	One	.	.
.	.	8cq	_	.	.	.	.
.	.	4d	more	4G	more	.	.
=13	=13	=13	=13	=13	=13	=13	=13
*>Letter>C	*>Letter>C	*>Letter>C	*>Letter>C	*>Letter>C	*>Letter>C	*>Letter>C	*>Letter>C
*>Label>Prechorus	*>Label>Prechorus	*>Label>Prechorus	*>Label>Prechorus	*>Label>Prechorus	*>Label>Prechorus	*>Label>Prechorus	*>Label>Prechorus
1FMM	F:maj7	4e	lone-	4c	lone-	.	newline
.	.	8f	-ly	8d	-ly	.	.
.	.	8e	night	8c	night	.	.
.	.	4r	.	4r	.	.	.
.	.	8c	for	8G	for	.	.
.	.	16c	me	8G	me	D	.
.	.	[16G	_	.	.	.	.
=14	=14	=14	=14	=14	=14	=14	=14
1Emm	E:min7	4G]	_	2r	.	.	.
.	.	4r	.	.	.	.	.
.	.	8r	.	8r	.	.	.
.	.	8c	I	8G	I	.	.
.	.	8d	looked	8A	looked	.	.
.	.	8dq	_	8Aq	_	.	.
.	.	8e	up	8c	up	.	.
=15	=15	=15	=15	=15	=15	=15	=15
1FMM	F:maj7	4r	.	4r	.	.	.
.	.	8r	.	8r	.	.	.
.	.	8f	what	8c	what	.	.
.	.	8e	did	8A	did	.	.
.	.	4a	I	4c	I	.	.
.	.	8gq	_	8cq	_	.	.
.	.	8a	see	8d	see?	D	.
=16	=16	=16	=16	=16	=16	=16	=16
.	.	8aq	_	8cq	_	.	.
1GM	G:sus4(b7)	8a	_	2d	_	.	.
.	.	[4.g	_	.	.	.	.
.	.	8g]	_	2r	.	.	.
.	.	8a	_	.	.	.	.
.	.	4r	.	.	.	.	.
=17	=17	=17	=17	=17	=17	=17	=17
*>Letter>D	*>Letter>D	*>Letter>D	*>Letter>D	*>Letter>D	*>Letter>D	*>Letter>D	*>Letter>D
*>Label>Chorus	*>Label>Chorus	*>Label>Chorus	*>Label>Chorus	*>Label>Chorus	*>Label>Chorus	*>Label>Chorus	*>Label>Chorus
1FMM	F:maj7	8e 8g	Se-	1r	.	.	newline
.	.	16e 16g	-xy	.	.	.	.
.	.	[16d [16f	eyes	.	.	.	.
.	.	8d] 8f]	_	.	.	.	.
.	.	8r	.	.	.	.	.
.	.	4r	.	.	.	.	.
.	.	8r	.	.	.	.	.
.	.	16c	mo-	.	.	.	.
.	.	16d	-vin'	.	.	.	.
=18	=18	=18	=18	=18	=18	=18	=18
1FMM	F:maj7	8e	'cross	1r	.	.	.
.	.	16e	the	.	.	.	.
.	.	[16d	floor,	.	.	C	.
.	.	8d]	_	.	.	.	.
.	.	16c	got	.	.	.	.
.	.	16d	me	.	.	.	.
.	.	8e	wan-	.	.	.	.
.	.	16e	-tin	.	.	.	.
.	.	32c	more	.	.	C	.
.	.	[32A	_	.	.	.	.
.	.	8A]	_	.	.	.	.
.	.	8r	.	.	.	.	.
=19	=19	=19	=19	=19	=19	=19	=19
1CMM	C:maj7	8B 8e	se-	2r	.	.	.
.	.	16B 16e	-xy	.	.	.	.
.	.	[16B [16e	eyes	.	.	.	.
.	.	24B] 24e]	_	.	.	.	.
.	.	12A 12d	_	.	.	.	.
.	.	8G 8B	_	.	.	.	.
.	.	2r	.	8e	Se-	.	.
.	.	.	.	16e	-xy	.	.
.	.	.	.	[16e	eyes	.	.
.	.	.	.	8e]	_	.	.
.	.	.	.	8r	.	.	.
=20	=20	=20	=20	=20	=20	=20	=20
1Amm	A:min7	1r	.	8e	se-	.	.
.	.	.	.	16e	-xy	.	.
.	.	.	.	[16e	eyes	.	.
.	.	.	.	4e_	_	.	.
.	.	.	.	8e]	_	.	.
.	.	.	.	8r	.	.	.
.	.	.	.	4r	.	.	.
=21	=21	=21	=21	=21	=21	=21	=21
*	*	*	*	*clefG2	*	*	*
1FMM	F:maj7	8e 8g	Se-	2r	.	.	newline
.	.	16e 16g	-xy	.	.	.	.
.	.	[16d [16f	eyes	.	.	.	.
.	.	8d] 8f]	_	.	.	.	.
.	.	8r	.	.	.	.	.
.	.	4r	.	8e	Se-	.	.
.	.	.	.	16e	-xy	.	.
.	.	.	.	[16e	eyes	.	.
.	.	8r	.	4e_ [4g	_	.	.
.	.	16c	Get-	.	.	.	.
.	.	16d	-tin'	.	.	.	.
=22	=22	=22	=22	=22	=22	=22	=22
1FMM	F:maj7	8e	down	16e_ [16a	_	.	.
.	.	.	.	8.e_ 8.a_ [8.cc	_	.	.
.	.	16e	with	.	.	.	.
.	.	16e	you	.	.	.	.
.	.	16r	.	4e_ 4a_ 4cc_	_	.	.
.	.	16A	I	.	.	.	.
.	.	16c	wan-	.	.	.	.
.	.	16d	-na	.	.	.	.
.	.	32e	move	4e_ 4a_ 4cc_	_	.	.
.	.	16.A	_	.	.	.	.
.	.	16A	with	.	.	.	.
.	.	16A	y-	.	.	.	.
.	.	8A	-you	8e] 8a] 8cc]	_	.	.
.	.	.	.	16d#Q 16g]Q 16bQ	_	.	.
.	.	8r	.	[8e 8a 8cc	_	.	.
=23	=23	=23	=23	=23	=23	=23	=23
1CMM	C:maj7	8B 8e	se-	1e] 1g 1b	_	.	.
.	.	16B 16e	-xy	.	.	.	.
.	.	[16B [16e	eyes	.	.	.	.
.	.	24B] 24e]	_	.	.	.	.
.	.	12A 12d	_	.	.	.	.
.	.	8G 8B	_	.	.	.	.
.	.	2r	.	.	.	.	.
=24	=24	=24	=24	=24	=24	=24	=24
4.Emm	E:min9	1r	.	1r	.	.	.
4Am	A:sus4(b7)	.	.	.	.	.	.
4.AMm	A:7	.	.	.	.	.	.
=25	=25	=25	=25	=25	=25	=25	=25
*>Letter>E	*>Letter>E	*>Letter>E	*>Letter>E	*>Letter>E	*>Letter>E	*>Letter>E	*>Letter>E
*>Label>Interlude	*>Label>Interlude	*>Label>Interlude	*>Label>Interlude	*>Label>Interlude	*>Label>Interlude	*>Label>Interlude	*>Label>Interlude
1FMM	F:maj7	1r	.	1r	.	.	newline
=26	=26	=26	=26	=26	=26	=26	=26
1Emm	E:min7	1r	.	1r	.	.	.
=27	=27	=27	=27	=27	=27	=27	=27
1FMM	F:maj7	1r	.	1r	.	.	.
=28	=28	=28	=28	=28	=28	=28	=28
1GM	G:sus4(b7)	2r	.	1r	.	.	.
.	.	4r	.	.	.	.	.
.	.	8dq	_	.	.	.	.
.	.	8e	I	.	.	.	.
.	.	8f	got	.	.	.	.
=29	=29	=29	=29	=29	=29	=29	=29
*>Letter>B	*>Letter>B	*>Letter>B	*>Letter>B	*>Letter>B	*>Letter>B	*>Letter>B	*>Letter>B
*>Label>Verse	*>Label>Verse	*>Label>Verse	*>Label>Verse	*>Label>Verse	*>Label>Verse	*>Label>Verse	*>Label>Verse
1Dmm	D:min7	8e	up	1r	.	.	newline
.	.	16c	and	.	.	.	.
.	.	[16c	took	.	.	.	.
.	.	16c]	_	.	.	.	.
.	.	8A	your	.	.	.	.
.	.	16c	hand	.	.	E	.
.	.	4r	.	.	.	.	.
.	.	8e	and	.	.	.	.
.	.	8f	we	.	.	.	.
=30	=30	=30	=30	=30	=30	=30	=30
.	.	8d#q	_	.	.	.	.
1GMm	G:11	8e	both	1r	.	.	.
.	.	16c	be-	.	.	.	.
.	.	[16c	-gan	.	.	E	.
.	.	16c]	_	.	.	.	.
.	.	16A	to	.	.	.	.
.	.	8cq	_	.	.	.	.
.	.	[8d	dance	.	.	E	.
.	.	8d]	_	.	.	.	.
.	.	8r	.	.	.	.	.
.	.	8r	.	.	.	.	.
.	.	16A	to	.	.	.	.
.	.	16A	the	.	.	.	.
=31	=31	=31	=31	=31	=31	=31	=31
.	.	8Gq	_	.	.	.	.
1CMM	C:maj7	8.A	mu-	1r	.	(G	.
.	.	[16G	-sic	.	.	g)	.
.	.	8G]	_	.	.	.	.
.	.	8r	.	.	.	.	.
.	.	2r	.	.	.	.	.
=32	=32	=32	=32	=32	=32	=32	=32
1Amm	A:min7	2r	.	1r	.	.	.
.	.	8r	.	.	.	.	.
.	.	8d#q	_	.	.	.	.
.	.	4e	Ooh,	.	.	.	.
.	.	8dq	_	.	.	.	.
.	.	8f	your	.	.	.	.
=33	=33	=33	=33	=33	=33	=33	=33
1Dmm	D:min7	8e	ma-	1r	.	.	newline
.	.	8c	-gic	.	.	.	.
.	.	8c	cast	.	.	.	.
.	.	16A	a	.	.	.	.
.	.	16c	spell	.	.	F	.
.	.	4r	.	.	.	.	.
.	.	16r	.	.	.	.	.
.	.	16~G	it	.	.	.	.
.	.	16e	did-	.	.	.	.
.	.	16f	-n't	.	.	.	.
=34	=34	=34	=34	=34	=34	=34	=34
.	.	8dq	_	.	.	.	.
1GMm	G:11	8e	take	1r	.	.	.
.	.	8c	long	.	.	.	.
.	.	16c	'till	.	.	.	.
.	.	8A	we	.	.	.	.
.	.	16cQ	_	.	.	.	.
.	.	[16d	fell	.	.	F	.
.	.	8d]	_	.	.	.	.
.	.	8r	.	.	.	.	.
.	.	8A	and	.	.	.	.
.	.	8Gq	_	.	.	.	.
.	.	8A	we	.	.	.	.
=35	=35	=35	=35	=35	=35	=35	=35
.	.	8Gq	_	.	.	.	.
1CMM	C:maj7	8.A	knew	1r	.	(G	.
.	.	[16G	it	.	.	g)	.
.	.	8G]	_	.	.	.	.
.	.	8r	.	.	.	.	.
.	.	2r	.	.	.	.	.
=36	=36	=36	=36	=36	=36	=36	=36
2Gmm	G:min7	2r	.	1r	.	.	.
.	.	8Bq	_	.	.	.	.
2CMm	C:7	4c	No	.	.	.	.
.	.	8cq	_	.	.	.	.
.	.	4d	more	.	.	.	.
=37	=37	=37	=37	=37	=37	=37	=37
*>Letter>C	*>Letter>C	*>Letter>C	*>Letter>C	*>Letter>C	*>Letter>C	*>Letter>C	*>Letter>C
*>Label>Prechorus	*>Label>Prechorus	*>Label>Prechorus	*>Label>Prechorus	*>Label>Prechorus	*>Label>Prechorus	*>Label>Prechorus	*>Label>Prechorus
1FMM	F:maj7	4e	lone-	4c	lone-	.	newline
.	.	8f	-ly	8d	-ly	.	.
.	.	8e	nights	8c	nights	.	.
.	.	4r	.	4r	.	.	.
.	.	8c	for	8G	for	.	.
.	.	16c	me	8G	me	D	.
.	.	[16G	_	.	.	.	.
=38	=38	=38	=38	=38	=38	=38	=38
1Emm	E:min7	4G]	_	1r	.	.	.
.	.	4r	.	.	.	.	.
.	.	8r	.	.	.	.	.
.	.	8G 8c	This	.	.	.	.
.	.	8A 8d	is	.	.	.	.
.	.	8Aq 8dq	_	.	.	.	.
.	.	[8c [8e	how	.	.	.	.
=39	=39	=39	=39	=39	=39	=39	=39
*	*	*clefG2	*	*clefG2	*	*	*
1FMM	F:maj7	8c] 8e]	_	1e 1a 1cc	Ha,	.	.
.	.	8r	.	.	.	.	.
.	.	8r	.	.	.	.	.
.	.	8c 8f	it's	.	.	.	.
.	.	4A 4e	gon-	.	.	.	.
.	.	8d 8a	-na	.	.	.	.
.	.	8gq	_	.	.	.	.
.	.	8d 8a	be	.	.	D	.
=40	=40	=40	=40	=40	=40	=40	=40
1GM	G:sus4(b7)	2d [2g	_	1f 1a 1cc	_	.	.
.	.	8g]	_	.	.	.	.
.	.	8a	_	.	.	.	.
.	.	4r	.	.	.	.	.
=41	=41	=41	=41	=41	=41	=41	=41
*>Letter>D	*>Letter>D	*>Letter>D	*>Letter>D	*>Letter>D	*>Letter>D	*>Letter>D	*>Letter>D
*>Label>Chorus	*>Label>Chorus	*>Label>Chorus	*>Label>Chorus	*>Label>Chorus	*>Label>Chorus	*>Label>Chorus	*>Label>Chorus
1FMM	F:maj7	8e 8g	Se-	2.a 2.cc 2.ee	Ooh	.	newline
.	.	16e 16g	-xy	.	.	.	.
.	.	[16d [16f	eyes	.	.	.	.
.	.	8d] 8f]	_	.	.	.	.
.	.	8r	.	.	.	.	.
.	.	4r	.	.	.	.	.
.	.	8r	.	4r	.	.	.
.	.	16c	mo-	.	.	.	.
.	.	16d	-vin'	.	.	.	.
=42	=42	=42	=42	=42	=42	=42	=42
1FMM	F:maj7	8e	'cross	1r	.	.	.
.	.	16e	the	.	.	.	.
.	.	[16d	floor,	.	.	C	.
.	.	8d]	_	.	.	.	.
.	.	16c	got	.	.	.	.
.	.	16d	me	.	.	.	.
.	.	8e	wan-	.	.	.	.
.	.	16e	-tin	.	.	.	.
.	.	32c	more	.	.	C	.
.	.	[32A	_	.	.	.	.
.	.	8A]	_	.	.	.	.
.	.	8r	.	.	.	.	.
=43	=43	=43	=43	=43	=43	=43	=43
1CMM	C:maj7	8B 8e	se-	2r	.	.	.
.	.	16B 16e	-xy	.	.	.	.
.	.	[16B [16d	eyes	.	.	.	.
.	.	24B] 24d]	_	.	.	.	.
.	.	12A 12c	_	.	.	.	.
.	.	8G 8B	_	.	.	.	.
.	.	2r	.	8e 8~a 8~dd	Se-	.	.
.	.	.	.	16e	-xy	.	.
.	.	.	.	[16e	eyes	.	.
.	.	.	.	8e]	_	.	.
.	.	.	.	8r	.	.	.
=44	=44	=44	=44	=44	=44	=44	=44
1Amm	A:min7	1r	.	8e	se-	.	.
.	.	.	.	16e	-xy	.	.
.	.	.	.	[16e	eyes	.	.
.	.	.	.	4e_	_	.	.
.	.	.	.	8e]	_	.	.
.	.	.	.	8r	.	.	.
.	.	.	.	4r	.	.	.
=45	=45	=45	=45	=45	=45	=45	=45
1FMM	F:maj7	8e 8g	Se-	2r	.	.	newline
.	.	16e 16g	-xy	.	.	.	.
.	.	[16d [16f	eyes	.	.	.	.
.	.	8d] 8f]	_	.	.	.	.
.	.	8r	.	.	.	.	.
.	.	4r	.	8e	Se-	.	.
.	.	.	.	16e	-xy	.	.
.	.	.	.	[16e	eyes	.	.
.	.	8r	.	4e_ [4g	_	.	.
.	.	16c	Get-	.	.	.	.
.	.	16d	-tin'	.	.	.	.
=46	=46	=46	=46	=46	=46	=46	=46
1FMM	F:maj7	8e	down	16e_ [16a	_	.	.
.	.	.	.	8.e_ 8.a_ [8.cc	_	.	.
.	.	16e	with	.	.	.	.
.	.	16e	you	.	.	.	.
.	.	16r	.	4e_ 4a_ 4cc_	_	.	.
.	.	16A	I	.	.	.	.
.	.	16c	wan-	.	.	.	.
.	.	16d	-na	.	.	.	.
.	.	32e	move	4e_ 4a_ 4cc_	_	.	.
.	.	16.A	_	.	.	.	.
.	.	16A	with	.	.	.	.
.	.	16A	y-	.	.	.	.
.	.	8A	-you	8e] 8a] 8cc]	_	.	.
.	.	.	.	16d#Q 16g]Q 16bQ	_	.	.
.	.	8r	.	[16e 16a 16cc	_	.	.
.	.	.	.	16r	.	.	.
=47	=47	=47	=47	=47	=47	=47	=47
1CMM	C:maj7	8B 8e	se-	1e] 1g 1b	_	.	.
.	.	16B 16e	-xy	.	.	.	.
.	.	[16B [16e	eyes	.	.	.	.
.	.	24B] 24e]	_	.	.	.	.
.	.	12A 12d	_	.	.	.	.
.	.	8G 8B	_	.	.	.	.
.	.	2r	.	.	.	.	.
=48	=48	=48	=48	=48	=48	=48	=48
4.Emm	E:min9	2r	.	1r	.	.	.
4Am	A:sus4(b7)	.	.	.	.	.	.
.	.	8r	.	.	.	.	.
4.AMm	A:7	16f	(Grunt)	.	.	.	.
.	.	16c	_	.	.	.	.
.	.	4r	.	.	.	.	.
=49	=49	=49	=49	=49	=49	=49	=49
*>Letter>B	*>Letter>B	*>Letter>B	*>Letter>B	*>Letter>B	*>Letter>B	*>Letter>B	*>Letter>B
*>Label>Solo	*>Label>Solo	*>Label>Solo	*>Label>Solo	*>Label>Solo	*>Label>Solo	*>Label>Solo	*>Label>Solo
1Dmm	D:min7	1r	.	1r	.	.	newline
=50	=50	=50	=50	=50	=50	=50	=50
1GMm	G:11	1r	.	1r	.	.	.
=51	=51	=51	=51	=51	=51	=51	=51
1CMM	C:maj7	1r	.	1r	.	.	.
=52	=52	=52	=52	=52	=52	=52	=52
1Amm	A:min7	1r	.	1r	.	.	.
=53	=53	=53	=53	=53	=53	=53	=53
1Dmm	D:min7	1r	.	1r	.	.	newline
=54	=54	=54	=54	=54	=54	=54	=54
1GMm	G:11	1r	.	1r	.	.	.
=55	=55	=55	=55	=55	=55	=55	=55
1CMM	C:maj7	1r	.	1r	.	.	.
=56	=56	=56	=56	=56	=56	=56	=56
2Gmm	G:min7	2r	.	1r	.	.	.
.	.	8Bq	_	.	.	.	.
2CMm	C:7	4c	No	.	.	.	.
.	.	8cq	_	.	.	.	.
.	.	4d	more	.	.	.	.
=57	=57	=57	=57	=57	=57	=57	=57
*>Letter>C	*>Letter>C	*>Letter>C	*>Letter>C	*>Letter>C	*>Letter>C	*>Letter>C	*>Letter>C
*>Label>Prechorus	*>Label>Prechorus	*>Label>Prechorus	*>Label>Prechorus	*>Label>Prechorus	*>Label>Prechorus	*>Label>Prechorus	*>Label>Prechorus
1FMM	F:maj7	4e	lone-	4c	lone-	.	newline
.	.	8f	-ly	8d	-ly	.	.
.	.	8e	nights	8c	nights	.	.
.	.	4r	.	4r	.	.	.
.	.	8c	for	8G	for	.	.
.	.	16c	me	8G	me	D	.
.	.	[16G	_	.	.	.	.
=58	=58	=58	=58	=58	=58	=58	=58
1Emm	E:min7	4G]	_	1r	.	.	.
.	.	4r	.	.	.	.	.
.	.	8r	.	.	.	.	.
.	.	8G 8c	This	.	.	.	.
.	.	8A 8d	is	.	.	.	.
.	.	8Aq 8dq	_	.	.	.	.
.	.	[8c [8e	how	.	.	.	.
=59	=59	=59	=59	=59	=59	=59	=59
1FMM	F:maj7	8c] 8e]	_	1e 1a 1cc	Ha	.	.
.	.	8r	.	.	.	.	.
.	.	8r	.	.	.	.	.
*	*	*clefG2	*	*	*	*	*
.	.	8c 8f	it's	.	.	.	.
.	.	4A 4e	gon-	.	.	.	.
.	.	8d 8a	-na	.	.	.	.
.	.	8gq	_	.	.	.	.
.	.	8d 8a	be	.	.	D	.
=60	=60	=60	=60	=60	=60	=60	=60
1GM	G:sus4(b7)	2d [2g	_	1f 1a 1cc	_	.	.
.	.	8g]	_	.	.	.	.
.	.	8a	_	.	.	.	.
.	.	4r	.	.	.	.	.
=61	=61	=61	=61	=61	=61	=61	=61
*>Letter>D	*>Letter>D	*>Letter>D	*>Letter>D	*>Letter>D	*>Letter>D	*>Letter>D	*>Letter>D
*>Label>Chorus	*>Label>Chorus	*>Label>Chorus	*>Label>Chorus	*>Label>Chorus	*>Label>Chorus	*>Label>Chorus	*>Label>Chorus
1FMM	F:maj7	8e 8g	Se-	2r	.	.	newline
.	.	16e 16g	-xy	.	.	.	.
.	.	[16d [16f	eyes	.	.	.	.
.	.	8d] 8f]	_	.	.	.	.
.	.	8r	.	.	.	.	.
.	.	4r	.	16r	.	.	.
.	.	.	.	[8.e	(Vocalizing)	.	.
.	.	8r	.	4e]	_	.	.
.	.	16c	mo-	.	.	.	.
.	.	16d	-vin'	.	.	.	.
=62	=62	=62	=62	=62	=62	=62	=62
1FMM	F:maj7	8e	'cross	4d	_	.	.
.	.	16e	the	.	.	.	.
.	.	[16d	floor,	.	.	C	.
.	.	8d]	_	8~A	_	.	.
.	.	16c	got	8r	.	.	.
.	.	16d	me	.	.	.	.
.	.	8e	wan-	2r	.	.	.
.	.	16e	-tin	.	.	.	.
.	.	32c	more	.	.	C	.
.	.	[32A	_	.	.	.	.
.	.	8A]	_	.	.	.	.
.	.	8r	.	.	.	.	.
=63	=63	=63	=63	=63	=63	=63	=63
1CMM	C:maj7	8B 8e	se-	1r	.	.	.
.	.	16B 16e	-xy	.	.	.	.
.	.	[16B [16d	eyes	.	.	.	.
.	.	24B] 24d]	_	.	.	.	.
.	.	12A 12c	_	.	.	.	.
.	.	8G 8B	_	.	.	.	.
.	.	2r	.	.	.	.	.
=64	=64	=64	=64	=64	=64	=64	=64
1Amm	A:min7	1r	.	4r	.	.	.
.	.	.	.	4B	So	.	.
.	.	.	.	4c	se-	.	.
.	.	.	.	4e	-xy	.	.
=65	=65	=65	=65	=65	=65	=65	=65
1FMM	F:maj7	8e 8g	Se-	2r	.	.	newline
.	.	16e 16g	-xy	.	.	.	.
.	.	[16d [16f	eyes	.	.	.	.
.	.	8d] 8f]	_	.	.	.	.
.	.	8r	.	.	.	.	.
.	.	4r	.	8e	Se-	.	.
.	.	.	.	16e	-xy	.	.
.	.	.	.	[16e	eyes!	.	.
.	.	8r	.	4e_ [4g	_	.	.
.	.	16c	Get-	.	.	.	.
.	.	16d	-tin'	.	.	.	.
=66	=66	=66	=66	=66	=66	=66	=66
1FMM	F:maj7	8e	down	16e_ [16a	_	.	.
.	.	.	.	8.e_ 8.a_ [8.cc	_	.	.
.	.	16e	with	.	.	.	.
.	.	16e	you	.	.	.	.
.	.	16r	.	4e_ 4a_ 4cc_	_	.	.
.	.	16A	I	.	.	.	.
.	.	16c	wan-	.	.	.	.
.	.	16d	-na	.	.	.	.
.	.	32e	move	4e_ 4a_ 4cc_	_	.	.
.	.	16.A	_	.	.	.	.
.	.	16A	with	.	.	.	.
.	.	16A	y-	.	.	.	.
.	.	8A	-you	8e] 8a] 8cc]	_	.	.
.	.	.	.	16d#Q 16g]Q 16bQ	_	.	.
.	.	8r	.	[16e 16a 16cc	_	.	.
.	.	.	.	16r	.	.	.
=67	=67	=67	=67	=67	=67	=67	=67
1CMM	C:maj7	8B 8e	se-	1e] 1g 1b	_	.	.
.	.	16B 16e	-xy	.	.	.	.
.	.	[16B [16e	eyes	.	.	.	.
.	.	24B] 24e]	_	.	.	.	.
.	.	12A 12d	_	.	.	.	.
.	.	8G 8B	_	.	.	.	.
.	.	2r	.	.	.	.	.
=68	=68	=68	=68	=68	=68	=68	=68
4.Emm	E:min9	2r	.	4r	.	.	.
.	.	.	.	8r	.	.	.
4Am	A:sus4(b7)	.	.	8e	Se	.	.
.	.	8r	.	8r	.	.	.
4.AMm	A:7	4.e	Ooh,	4.e	xy,	.	.
=69	=69	=69	=69	=69	=69	=69	=69
*>Label>>Fadeout	*>Label>>Fadeout	*>Label>>Fadeout	*>Label>>Fadeout	*>Label>>Fadeout	*>Label>>Fadeout	*>Label>>Fadeout	*>Label>>Fadeout
1FMM	F:maj7	8e 8g	Se-	2.a 2.cc 2.ee	ah	.	newline
.	.	16e 16g	-xy	.	.	.	.
.	.	[16d [16f	eyes	.	.	.	.
.	.	8d] 8f]	_	.	.	.	.
.	.	8r	.	.	.	.	.
.	.	4r	.	.	.	.	.
.	.	8r	.	4r	.	.	.
.	.	16c	Get-	.	.	.	.
.	.	16d	-tin'	.	.	.	.
=70	=70	=70	=70	=70	=70	=70	=70
1FMM	F:maj7	8e	down	1r	.	.	.
.	.	16e	with	.	.	.	.
.	.	16e	you	.	.	.	.
.	.	16r	.	.	.	.	.
.	.	16A	I	.	.	.	.
.	.	16c	wan-	.	.	.	.
.	.	16d	-na	.	.	.	.
.	.	32e	move	.	.	.	.
.	.	16.A	_	.	.	.	.
.	.	16A	with	.	.	.	.
.	.	16A	y-	.	.	.	.
.	.	8A	-you	.	.	.	.
.	.	8r	.	.	.	.	.
=71	=71	=71	=71	=71	=71	=71	=71
1CMM	C:maj7	8B 8e	se-	2r	.	.	.
.	.	16B 16e	-xy	.	.	.	.
.	.	[16B [16e	eyes	.	.	.	.
.	.	24B] 24e]	_	.	.	.	.
.	.	12A 12d	_	.	.	.	.
.	.	8G 8B	_	.	.	.	.
.	.	2r	.	8e	Se-	.	.
.	.	.	.	16e	-xy	.	.
.	.	.	.	[16e	eyes	.	.
.	.	.	.	4e_	_	.	.
=72	=72	=72	=72	=72	=72	=72	=72
1Amm	A:min7	1r	.	8e]	_	.	.
.	.	.	.	8r	.	.	.
.	.	.	.	4r	.	.	.
.	.	.	.	2r	.	.	.
=73	=73	=73	=73	=73	=73	=73	=73
1FMM	F:maj7	8e 8g	Se-	2r	.	.	newline
.	.	16e 16g	-xy	.	.	.	.
.	.	[16d [16f	eyes	.	.	.	.
.	.	8d] 8f]	_	.	.	.	.
.	.	8r	.	.	.	.	.
.	.	4r	.	8e	Se-	.	.
.	.	.	.	16e	-xy	.	.
.	.	.	.	[16e	eyes	.	.
.	.	8r	.	4e_ [4g	_	.	.
.	.	16c	Get-	.	.	.	.
.	.	16d	-tin'	.	.	.	.
=74	=74	=74	=74	=74	=74	=74	=74
1FMM	F:maj7	8e	down	16e_ [16a	_	.	.
.	.	.	.	8.e_ 8.a_ [8.cc	_	.	.
.	.	16e	with	.	.	.	.
.	.	16e	you	.	.	.	.
.	.	16r	.	4e_ 4a_ 4cc_	_	.	.
.	.	16A	I	.	.	.	.
.	.	16c	wan-	.	.	.	.
.	.	16d	-na	.	.	.	.
.	.	32e	move	4e_ 4a_ 4cc_	_	.	.
.	.	16.A	_	.	.	.	.
.	.	16A	with	.	.	.	.
.	.	16A	y-	.	.	.	.
.	.	8A	-you	8e] 8a] 8cc]	_	.	.
.	.	.	.	16d#Q 16g]Q 16bQ	_	.	.
.	.	8r	.	[16e 16a 16cc	_	.	.
.	.	.	.	16r	.	.	.
=75	=75	=75	=75	=75	=75	=75	=75
1CMM	C:maj7	8B 8e	se-	1e] 1g 1b	_	.	.
.	.	16B 16e	-xy	.	.	.	.
.	.	[16B [16e	eyes	.	.	.	.
.	.	24B] 24e]	_	.	.	.	.
.	.	12A 12d	_	.	.	.	.
.	.	8G 8B	_	.	.	.	.
.	.	2r	.	.	.	.	.
=76	=76	=76	=76	=76	=76	=76	=76
4.Emm	E:min9	1r	.	1r	.	.	.
4Am	A:sus4(b7)	.	.	.	.	.	.
4.AMm	A:7	.	.	.	.	.	.
=77	=77	=77	=77	=77	=77	=77	=77
1FMM	F:maj7	1r	.	1r	.	.	newline
1r;	1r	r;	.	r;	.	.	.
*-	*-	*-	*-	*-	*-	*-	*-
!!!BillboardChartDate: 1980/03/08
!!!BillboardPeak: 5
!!!BillboardWeeksOnChart: 21
!!!COC: Dr. Hook
!!!ENC: Nathaniel Condit-Schultz
!!!EST: Awating manual error checking and editing.
!!!OTL: Sexy Eyes
!!!RDF**chordsym: original McGill chord annotation + (implied pitch class set, with bass pitch in first position)
!!!RDF**harmony: **recip + pitch class of root + harmonic quality
!!!RDF**leadinstrument: original McGill primary instrumentation annotation
!!!RDF**phrase: newline = linebreak in original McGill transcription
!!!RDF**timestamp: McGill audio timestamp in seconds
!!!RDT: 2017/01/12/
!!!SampleActualRank: 48
!!!SampleID#: 0831
!!!SampleTargetRank: 48
!!!MBID: dd238933-b077-4272-940d-cfb35fd9013d
